X: 30581
T: SUN HORNPIPE
C: By Joseph Clark
%R: hornpipe, reel
B: Elias Howe "The Musician's Companion" Part 3 1844 p.58 #1
S: http://imslp.org/wiki/The_Musician's_Companion_(Howe,_Elias)
S: https://archive.org/stream/firstthirdpartof03howe/#page/66/mode/1up
Z: 2015 John Chambers <jc:trillian.mit.edu>
M: 2/4
L: 1/16
K: Bb
% - - - - - - - - - - - - - - - - - - - - - - - - -
|: f2 |\
b2fe defd | Bcd{c}B .F2.B2 | dBgf edcB | ABcd .c2.f2 |\
b2fe defd | Bcd{c}B .F2.B2 | dfgf edcd | B2d2B2 :|
|: B2 |\
BFDF {c}BABc | dBed cBAF | BABc dBed | {d}cBcd .c2(3(fga) |\
bfdB {d}cBcd | BFBd {d}cBcd | egfe dfec | B2d2B2 :|
% - - - - - - - - - - - - - - - - - - - - - - - - -
